X: 1
T: Cosmos Dance
M: 4/4
L: 1/16
K: A
Q: 1/4=154

z2 A2 | A2 C2 D2 B2 | A2 B2 D2 C2 | B2 A2 D2 z2 |
C2 E2 A2 C2 | D2 A2 C2 B2 | A4 z4 | z2 G#2 B2 A2 |
A2 C#2 D2 B2 | A4 z4 | z2 C2 E2 D2 | C2 B2 A2 z2 |
A2 C#2 D2 B2 | A2 G#2 A2 z2 | E2 D2 C2 B2 | A4 z4 |
z2 A2 | A2 C2 D2 B2 | A2 B2 D2 C2 | B2 A2 D2 z2 |
C2 E2 A2 C2 | D2 A2 C2 B2 | A4 z4 | z2 A2 A2 z4 |
```
